Gawaita/scalable/mimetypes/application-x-generic.svg

<?xml version="1.0" encoding="UTF-8"?>
<svg height="128px" viewBox="0 0 128 128" width="128px" xmlns="http://www.w3.org/2000/svg">
    <path d="m 28 8 h 50 l 30.042969 29.917969 v 74.058593 c 0 4.433594 -3.609375 8.023438 -8.042969 8.023438 h -72 c -4.433594 0 -8 -3.566406 -8 -8 v -96 c 0 -4.433594 3.566406 -8 8 -8 z m 0 0" fill="#f6f5f4"/>
    <path d="m 78 8 v 22 c 0 4.433594 3.609375 7.921875 8.042969 7.921875 l 22 -0.003906 z m 0 0" fill="#deddda"/>
</svg>

<svg width="128" height="128" viewBox="0 0 128 128" fill="none" xmlns="http://www.w3.org/2000/svg">
<path d="M28 8H78L108.043 37.918V111.977C108.043 116.41 104.434 120 100 120H28C23.5664 120 20 116.434 20 112V16C20 11.5664 23.5664 8 28 8Z" fill="#F6F5F4"/>
<g filter="url(#filter0_d_1_2299)">
<path d="M78 8V30C78 34.4336 81.6094 37.9219 86.043 37.9219L108.043 37.918L78 8Z" fill="#DEDDDA"/>
</g>
<defs>
<filter id="filter0_d_1_2299" x="63.7" y="1.7" width="54.643" height="54.5219" filterUnits="userSpaceOnUse" color-interpolation-filters="sRGB">
<feFlood flood-opacity="0" result="BackgroundImageFix"/>
<feColorMatrix in="SourceAlpha" type="matrix" values="0 0 0 0 0 0 0 0 0 0 0 0 0 0 0 0 0 0 127 0" result="hardAlpha"/>
<feOffset dx="-2" dy="6"/>
<feGaussianBlur stdDeviation="6.15"/>
<feComposite in2="hardAlpha" operator="out"/>
<feColorMatrix type="matrix" values="0 0 0 0 0.433894 0 0 0 0 0.433894 0 0 0 0 0.433894 0 0 0 0.46 0"/>
<feBlend mode="normal" in2="BackgroundImageFix" result="effect1_dropShadow_1_2299"/>
<feBlend mode="normal" in="SourceGraphic" in2="effect1_dropShadow_1_2299" result="shape"/>
</filter>
</defs>
</svg>
